!!!COM: (Achille-) Claude Debussy
!!!OTL: [T151_Deb-w2p19m5-12]
**kern	**kern	**dynam	**kern	**text	**text	**dynam
*grp:A	*grp:B	*	*grp:A	*	*	*
*part2	*part2	*	*part1	*	*	*
*staff3	*staff2	*	*staff1	*	*	*
*Ipiano	*Ipiano	*	*Isoprn	*	*	*
*I"Piano	*I"Piano	*	*I"Soprano Solo	*	*	*
*I'Pno.	*	*	*I'S. Solo	*	*	*
*clefF4	*clefG2	*	*clefG2	*	*	*
*k[b-e-a-d-g-c-]	*k[b-e-a-d-g-c-]	*	*k[b-e-a-d-g-c-]	*	*	*
*G-:	*G-:	*	*G-:	*	*	*
*M6/8	*M6/8	*	*M6/8	*	*	*
=1	=1	=1	=1	=1	=1	=1
*^	*	*	*	*	*	*
!!LO:TX:B:t=[Joyeusement animé]
!LO:TUP:a	!	!	!	!LO:TUP:a:r=4.	!	!	!
(16%3AA-L 16%3E-	4.ryy	8r	pp	16%3r	.	.	.
.	.	(8ee-L 8eee-	.	.	.	.	.
*	*	*	*	*	*	*italic	*
[16%3A-J [16%3c- [16%3e-)	.	.	.	16%3a-	Voi-	Ac-	p
.	.	8a-J 8aa-)	.	.	.	.	.
!	!	!	!	!LO:TX:t=P:problem:duplet bracket obstructing slur	!	!	!
(4.A-] 4.c-] 4.e-]	[4.E-	8r	.	(16%3b-	-ci	-cept	.
.	.	(8ee-L 8eee-	.	.	.	.	.
.	.	.	.	16%3cc-)	des	these	.
.	.	8aa-J 8aaa-)	.	.	.	.	.
=2	=2	=2	=2	=2	=2	=2	=2
4.f-X	2.E-] 2.A- 2.c-	8r	.	(16%3cc-	fruits,	rud-	.
.	.	(8ee-L 8eee-	.	.	.	.	.
.	.	.	.	16%3ee-)	des	-dy	.
.	.	8a-J 8aa-)	.	.	.	.	.
4.fn)	.	8r	.	4ee-	fleurs,	fruits,	.
.	.	(8ee-L 8eee-	.	.	.	.	.
.	.	8aa-J 8aaa-)	.	(8ee-	des	this	.
=3	=3	=3	=3	=3	=3	=3	=3
!LO:TUP:a	!	!	!	!	!	!	!
(16%3AA-L 16%3E-	4.ryy	8r	pp	4aa-	feuil-	fol-	.
.	.	(8ee-L 8eee-	.	.	.	.	.
[16%3A-J [16%3c- [16%3e-)	.	.	.	.	.	.	.
.	.	8a-J 8aa-)	.	8ee-	-les	-iage	.
(4.A-] 4.c-] 4.e-]	[4.E-	8r	.	8cc-L	et	from	.
.	.	(8ee-L 8eee-	.	8b-J	.	.	.
.	.	8aa-J 8aaa-)	.	8cc-	des	the	.
=4	=4	=4	=4	=4	=4	=4	=4
4.f-X	2.E-] 2.A- 2.c-	8r	.	4.b-/	bran-	bow-	.
.	.	(8ee-L 8eee-	.	.	.	.	.
.	.	8a-J 8aa-)	.	.	.	.	.
4.fn)	.	8r	.	4a-)	-ches	-er,	.
.	.	(8ee-L 8eee-	.	.	.	.	.
.	.	8aa-J 8aaa-)	.	8r	.	.	.
!!linebreak:original
=5	=5	=5	=5	=5	=5	=5	=5
!	!LO:TX:t=P:problem:slur placement	!	!	!LO:TUP:a:r=4.	!	!	!
(2.DD-\	(2.c-> (2.e->/ (>2.F	8rbb	p >	16%3r	.	.	.
.	.	(>8ee-/L'>	.	.	.	.	.
.	.	.	.	16%3a-~>	Et	and	p
.	.	8a-/J'>	.	.	.	.	.
.	.	4.ee-/~>'>)	.	16%3cc-~	puis	this	.
.	.	.	]	16%3ee-~	voi-	my	.
=6	=6	=6	=6	=6	=6	=6	=6
2.GG-)	2.B->) 2.d->) 2.F-/)	8rd<	.	16%3b-~	-ci	lov-	.
.	.	(8A--<'L	.	.	.	.	.
.	.	.	.	16%3dd-~	mon	-ing	.
.	.	8D-<'J	.	.	.	.	.
.	.	4A--<'~)	.	4.ee-~	cœur	heart,	.
.	.	8ryy<	.	.	.	.	.
=7	=7	=7	=7	=7	=7	=7	=7
N(2.DD-\	2.c-> 2.e-> 2.Fn/	8rbb	p >	8r	.	.	.
.	.	(>8ee-/L'>	.	8ff	qui	a	.
.	.	8a-/J'>	.	8ee-	ne	ti-	.
.	.	4.ee-/'>)	.	8dd-	bat	-mid	.
!	!	!	!	!LO:TX:a:t=rit.	!	!	!
.	.	.	.	8cc-	que	blush-	.
.	.	.	]	8ee-	pour	-ing	.
=8	=8	=8	=8	=8	=8	=8	=8
*	*	*^	*	*	*	*	*
2.GG-)\	2.B-> 2.d-> 2.F-/	4ree	8rd<	.	(4.b-/	vous.	flow-	.
!	!	!	!	!LO:HP:t=dim.	!	!	!	!
.	.	.	(8G-<L	>	.	.	.	.
.	.	8ree	8D-<J	.	.	.	.	.
.	.	8ree	4.A-<)<	.	4.a-)	.	-er,	.
.	.	(<8a-L	.	.	.	.	.	.
.	.	8d-J)	.	.	.	.	.	.
=	=	=	=	=	=	=	=	=
*-	*-	*-	*-	*-	*-	*-	*-	*-
!!!system-decoration: s1[({(s2,s3)})]
!!!RDF**kern: < = below
!!!RDF**kern: > = above
!!!EED: Gabreilla Vici
!!!EEV: 2021/11/30
!!!EED2: Jason Lee
!!!EEV2: 2022/04/16
